build/images/optimised-2.svg

<svg xmlns="http://www.w3.org/2000/svg" width="153.9" height="153.9" viewBox="0 0 153.9 153.9"><path d="M77 77.3c0-.3-.1-.7-.1-1.1 0 1.7.1 1.7.1 1.1zM76.9 77.5c0-.3 0-.6.1-.9 0-.4 0-.4-.1.9z"/><path fill="#fff" d="M77 77.9V76c0 .3-.1.6-.1.9s0 .7.1 1zM104 85.4C90.2 74.1 54.1 72.9 52.6 51.6v-2c2.1-15 41.3-30.9 45.5-13.8 2.2 9.2-31.3 24.2-29 27.4 2.2 3.1 45.4-23.8 42-34.8-3.4-11.1-24.7-6.7-31.6-4.8-10.9 2.9-19.4 10.1-27.8 17.1C42 48.8 34 62.8 45.8 73.2c8.5 7.4 19.8 9.4 30.1 13.3 8.9 3.4 21.7 9.6 25 19.5 4.5 13.2-4.6 16.9-16 16.5-9.4-.3-23.1-3.2-28.8-11.5-.8-1.2-3.5-10.4-6.1-7.9-2.3 2.2-8.5 6.7-9.1 9.9-3.8 21.1 38.1 21.9 49.1 17.5 20-7.9 34.8-28.1 14-45.1z"/></svg>

<?xml version="1.0" encoding="utf-8"?>
<!-- Generator: Adobe Illustrator 16.0.0, SVG Export Plug-In . SVG Version: 6.00 Build 0)  -->
<!DOCTYPE svg PUBLIC "-//W3C//DTD SVG 1.1//EN" "http://www.w3.org/Graphics/SVG/1.1/DTD/svg11.dtd">
<svg version="1.1" id="Layer_1" xmlns="http://www.w3.org/2000/svg" xmlns:xlink="http://www.w3.org/1999/xlink" x="0px" y="0px"
	 width="153.9px" height="153.9px" viewBox="0 0 153.9 153.9" enable-background="new 0 0 153.9 153.9" xml:space="preserve">
<path d="M77,77.3c0-0.3-0.1-0.699-0.1-1.1C76.9,77.9,77,77.9,77,77.3z"/>
<path d="M76.9,77.5c0-0.3,0-0.6,0.1-0.899C77,76.2,77,76.2,76.9,77.5z"/>
<path fill="#FFFFFF" d="M77,77.9c0-0.5,0-1.5,0-1.9c0,0.3-0.1,0.601-0.1,0.9S76.9,77.6,77,77.9z"/>
<path fill="#FFFFFF" d="M104,85.4C90.2,74.1,54.1,72.9,52.6,51.6c0-0.5,0-1.5,0-2c2.1-15,41.3-30.9,45.5-13.801
	C100.3,45,66.8,60,69.1,63.2c2.199,3.1,45.399-23.8,42-34.8C107.7,17.3,86.4,21.7,79.5,23.6C68.6,26.5,60.1,33.7,51.7,40.7
	C42,48.8,34,62.8,45.8,73.2C54.3,80.6,65.6,82.6,75.9,86.5c8.899,3.4,21.7,9.601,25,19.5c4.5,13.2-4.601,16.9-16,16.5
	c-9.4-0.3-23.101-3.2-28.8-11.5C55.3,109.8,52.6,100.6,50,103.1c-2.3,2.199-8.5,6.699-9.1,9.899C37.1,134.1,79,134.9,90,130.5
	C110,122.6,124.8,102.4,104,85.4z"/>
</svg>
